lib/healthicons/icons/solid/body/heart.svg

<svg fill="none" height="48" viewBox="0 0 48 48" width="48" xmlns="http://www.w3.org/2000/svg"><path clip-rule="evenodd" d="m20.0003 6h4v2.64383c1.2723-.07748 2.5055-.0034 3.6136.23052-4.7004 1.85005-6.863 6.60445-7.2171 7.38305l-.0218.0477c-1.1486-.1744-2.393-.3194-3.5705-.3086-1.2134.1034-2.3907.2827-4.3296 1.3748-.2734.1932-.642.5101-1.1429.9933-.0364-.0262-.0754-.0505-.1264-.0824-.0408-.0255-.0895-.0558-.1507-.0958-.2769-.1809-.6812-.4257-1.1742-.6702-1.01558-.5039-2.26137-.9336-3.48226-.9336v-3.8783c2.11105 0 4.00906.7167 5.30426 1.3593.4493.2229.8436.4457 1.1699.6437.2887-.6162.6696-1.1893 1.125-1.7177l-2.1966-3.44688 3.521-2.28654 2.0265 3.18012c.8346-.4304 1.7298-.78754 2.6518-1.06822zm10.7564 8.691c-1.4577.6757-2.7195 1.7864-3.8571 3.9244 0 0-2.5239-1.1542-4.5715-1.7541 1.5715-3.186 3.4002-4.9786 6.0969-6.2286 2.6086-1.20917 5.7206-1.51878 9.4175-1.39103l-.175 4.75843c-3.4111-.1179-5.3651-.0256-6.9108.6909zm-17.4757 4.5285c-7.26267 6.478 3.1125 22.673 11.4128 22.673 8.3002 0 19.7294-16.1806 11.4128-23.5984-.1919-.1712-.3599-.3252-.5159-.4682l-.0001-.0001c-.6874-.6303-1.1448-1.0496-2.4132-1.8038-2.5523 0-4.0904 2.5531-4.7906 4.1085-.0356.079-.0795.1527-.1303.2203l-1.6142 4.4906-.5817 2.0882c-.0614.2205-.0454.4553.0455.6654l.6794 1.5702 3.518-.4083.2306 1.9866-3.3087.3841.215 3.1518-1.9953.1361-.2683-3.9318-.9062-2.0945c-.2727-.6302-.3209-1.3349-.1367-1.9963l.0174-.0624-2.034.9198-1.3299 3.3618-1.8598-.7357 1.0533-2.6624-3.2105-.7564.4586-1.9467 4.0055.9437 3.6565-1.6537 1.2296-3.4205c-3.168-1.4884-9.6737-3.9848-12.8396-1.1609z" fill="#333" fill-rule="evenodd"/></svg>

<svg width="48" height="48" viewBox="0 0 48 48" fill="none" xmlns="http://www.w3.org/2000/svg">
<path d="M20.0003 6H24.0003V8.64383C25.2726 8.56635 26.5058 8.64043 27.6139 8.87435C22.9135 10.7244 20.7509 15.4788 20.3968 16.2574L20.375 16.3051C19.2264 16.1307 17.982 15.9857 16.8045 15.9965C15.5911 16.0999 14.4138 16.2792 12.4749 17.3713C12.2015 17.5645 11.8329 17.8814 11.332 18.3646C11.2956 18.3384 11.2566 18.3141 11.2056 18.2822C11.1648 18.2567 11.1161 18.2264 11.0549 18.1864C10.778 18.0055 10.3737 17.7607 9.8807 17.5162C8.86512 17.0123 7.61933 16.5826 6.39844 16.5826V12.7043C8.50949 12.7043 10.4075 13.421 11.7027 14.0636C12.152 14.2865 12.5463 14.5093 12.8726 14.7073C13.1613 14.0911 13.5422 13.518 13.9976 12.9896L11.801 9.54272L15.322 7.25618L17.3485 10.4363C18.1831 10.0059 19.0783 9.64876 20.0003 9.36808V6Z" fill="#333333"/>
<path d="M30.7567 14.691C29.299 15.3667 28.0372 16.4774 26.8996 18.6154C26.8996 18.6154 24.3757 17.4612 22.3281 16.8613C23.8996 13.6753 25.7283 11.8827 28.425 10.6327C31.0336 9.42353 34.1456 9.11392 37.8425 9.24167L37.6675 14.0001C34.2564 13.8822 32.3024 13.9745 30.7567 14.691Z" fill="#333333"/>
<path d="M13.281 19.2195C6.01833 25.6975 16.3935 41.8925 24.6938 41.8925C32.994 41.8925 44.4232 25.7119 36.1066 18.2941C35.9147 18.1229 35.7467 17.9689 35.5907 17.8259C34.9033 17.1956 34.4458 16.7762 33.1774 16.022C30.6251 16.022 29.087 18.5751 28.3868 20.1305C28.3512 20.2095 28.3073 20.2832 28.2565 20.3508L26.6423 24.8414L26.0606 26.9296C25.9992 27.1501 26.0152 27.3849 26.1061 27.595L26.7855 29.1652L30.3035 28.7569L30.5341 30.7435L27.2254 31.1276L27.4404 34.2794L25.4451 34.4155L25.1768 30.4837L24.2706 28.3892C23.9979 27.759 23.9497 27.0543 24.1339 26.3929L24.1513 26.3305L22.1173 27.2503L20.7874 30.6121L18.9276 29.8764L19.9809 27.214L16.7704 26.4576L17.229 24.5109L21.2345 25.4546L24.891 23.8009L26.1206 20.3804C22.9526 18.892 16.4469 16.3956 13.281 19.2195Z" fill="#333333"/>
</svg>
